X: 015
T: Banks of Tweed
B: 204 Favourite Country Dances
N: Published by Straight & Skillern, London ca.1775
F: http://imslp.org/wiki/204_Favourite_Country_Dances_(Various) p.6 #15
Z: 2014 John Chambers <jc:trillian.mit.edu>
N: The 2nd strain has initial repeat but no final repeat.
M: 2/4
L: 1/8
K: A
%  - - - - - - - - - - - - - - - - - - - - - - - - -
e |\
a<ee<d | c<AA<B | c<ec<A | B>cBe |\
a<ee<d | c<AA<E | F<AG<B | HA>BA :|
|: B |\
e<BB<A | A<GF<E | G<EG<B | e3f |\
g<bb<g | c<ee<c | B<GF<G | E>FE "D.C."|]
%  - - - - - - - - - - - - - - - - - - - - - - - - -
%%begintext align
%% Lead down on your own sides & turn your
%% Part: at the bott: lead up again & cast off
%% set corners & turn
%%endtext

%%sep 1 1 500
%%sep 1 1 500
